X:237
T: Der Hammerschmiedssohn
N: Q0088H
O: Osteuropa, Tschechoslowakei, Sudetenland, Kuhlaendchen
R: Ballade, Verfuehrung, Schwangerschaft, Mord
M: 2/4
L: 1/16
K: F
 | c2BBA2B2 | c2A2F4 |
G2FFE2F2 | G2E2C2
C2 | B2A2G2F2 | G4E4 | F4z2
F2 | B2A2G2F2 | G4E4 | F4z4

@@@ Tune index: 1292
